X: 1330
T: Captain Kelly's Reel
R: reel
O: F.O'Neill
B: O'Neill's 1850 #1330
Z: Trish O'Neil
M: C|
L: 1/8
K: G
D2 !segno![|\
GBAF G2(ge) | dBAc BE-~E2 | GBAF G2(ge) | dBcA T(BG)G2 ||\
G2(ef) (3ggg (ge) | dBAc BE-~E2 | G2(Bd) {a}gfge |
| dBAB G2 \
|: d2 |\
g2(bg) agbg | egdg egdf |\
[1 g2(bg) agbg | dgfa g2d2 :|\
[2 gafg efdf | (3(efg) (fa) ged!segno!B |]
